X:17
T:Mary Mayer on the Whistle  
C:Terence "Cuz" Teahan
B:Terry "Cuz" Teahan "Sliabh Luachra on Parade" 1980
Z:Patrick Cavanagh
M:6/8
L:1/8
R:Jig
K:G
| AGE GED | GBd e2g | ege dBG | BAG GED | 
DGG BGG | GBd edB | def gfe | dBA GED :| 
| BGG AGG | EDE G2A | Bee dBA | BAB GED | 
DGG BGG | GBd edB | def gfe | dBA GED :|| 

